X: 27389
T: Mockingbird Hill
R: waltz
M: 3/4
K: Dmajor
A2|D3 F Ad|f3 d AF|G3 B dg|b6|a3 g ec|A4 (3cde|f3 e dB|
A4 A2|D3 F Ad|f3 d AF|G3 B dg|b6|a3 g ec|A4 (3cde|
f3 e dc|d4||A2|f3 A fa|g2 f2 e2|d2 G3 B|A4 a2|a3 g ec|
A4 (3cde|f3 e dB|A4 A2|f3 A fa|g2 f2 e2|d2 G3 B|A4 a2|
a3 g ec|A4 (3cde|f3 e dc|d4||

